symbols/web/calendar_today/materialsymbolsrounded/calendar_today_wght100_20px.svg

<svg xmlns="http://www.w3.org/2000/svg" height="20" width="20"><path d="M4.917 17.25q-.584 0-.959-.375t-.375-.958V5.833q0-.583.375-.958t.959-.375h1.5V2.854q0-.125.104-.239.104-.115.271-.115.146 0 .26.115.115.114.115.26V4.5h5.75V2.812q0-.104.093-.208.094-.104.24-.104.125 0 .229.104.104.104.104.229V4.5h1.5q.584 0 .959.375t.375.958v10.084q0 .583-.375.958t-.959.375Zm0-.667h10.166q.292 0 .479-.187.188-.188.188-.479V9.042H4.25v6.875q0 .291.188.479.187.187.479.187ZM4.25 8.375h11.5V5.833q0-.291-.188-.479-.187-.187-.479-.187H4.917q-.292 0-.479.187-.188.188-.188.479Zm0 0V5.167 8.375Z"/></svg>

<svg xmlns="http://www.w3.org/2000/svg" height="20" width="20"><path d="M4.917 17.25Q4.333 17.25 3.958 16.875Q3.583 16.5 3.583 15.917V5.833Q3.583 5.25 3.958 4.875Q4.333 4.5 4.917 4.5H6.417V2.854Q6.417 2.729 6.521 2.615Q6.625 2.5 6.792 2.5Q6.938 2.5 7.052 2.615Q7.167 2.729 7.167 2.875V4.5H12.917V2.812Q12.917 2.708 13.01 2.604Q13.104 2.5 13.25 2.5Q13.375 2.5 13.479 2.604Q13.583 2.708 13.583 2.833V4.5H15.083Q15.667 4.5 16.042 4.875Q16.417 5.25 16.417 5.833V15.917Q16.417 16.5 16.042 16.875Q15.667 17.25 15.083 17.25ZM4.917 16.583H15.083Q15.375 16.583 15.562 16.396Q15.75 16.208 15.75 15.917V9.042H4.25V15.917Q4.25 16.208 4.438 16.396Q4.625 16.583 4.917 16.583ZM4.25 8.375H15.75V5.833Q15.75 5.542 15.562 5.354Q15.375 5.167 15.083 5.167H4.917Q4.625 5.167 4.438 5.354Q4.25 5.542 4.25 5.833ZM4.25 8.375V5.833Q4.25 5.542 4.25 5.354Q4.25 5.167 4.25 5.167Q4.25 5.167 4.25 5.354Q4.25 5.542 4.25 5.833V8.375Z"/></svg>
